styles/4/Numix/48/places/default-folder-rss.svg

<?xml version="1.0" encoding="UTF-8" standalone="no"?>
<!-- Created with Inkscape (http://www.inkscape.org/) -->

<svg
   xmlns:dc="http://purl.org/dc/elements/1.1/"
   xmlns:cc="http://creativecommons.org/ns#"
   xmlns:rdf="http://www.w3.org/1999/02/22-rdf-syntax-ns#"
   xmlns:svg="http://www.w3.org/2000/svg"
   xmlns="http://www.w3.org/2000/svg"
   xmlns:sodipodi="http://sodipodi.sourceforge.net/DTD/sodipodi-0.dtd"
   xmlns:inkscape="http://www.inkscape.org/namespaces/inkscape"
   width="48"
   height="48"
   id="svg2"
   version="1.1"
   inkscape:version="0.91 r"
   sodipodi:docname="default-folder-rss.svg">
  <defs
     id="defs4" />
  <sodipodi:namedview
     id="base"
     pagecolor="#ffffff"
     bordercolor="#666666"
     borderopacity="1.0"
     inkscape:pageopacity="0.0"
     inkscape:pageshadow="2"
     inkscape:zoom="8.815"
     inkscape:cx="7.6386932"
     inkscape:cy="6.7797029"
     inkscape:document-units="px"
     inkscape:current-layer="layer1"
     showgrid="true"
     inkscape:window-width="1280"
     inkscape:window-height="998"
     inkscape:window-x="0"
     inkscape:window-y="0"
     inkscape:window-maximized="1">
    <inkscape:grid
       type="xygrid"
       id="grid2990"
       empspacing="5"
       visible="true"
       enabled="true"
       snapvisiblegridlinesonly="true" />
  </sodipodi:namedview>
  <metadata
     id="metadata7">
    <rdf:RDF>
      <cc:Work
         rdf:about="">
        <dc:format>image/svg+xml</dc:format>
        <dc:type
           rdf:resource="http://purl.org/dc/dcmitype/StillImage" />
        <dc:title />
      </cc:Work>
    </rdf:RDF>
  </metadata>
  <g
     inkscape:label="Body"
     inkscape:groupmode="layer"
     id="layer1"
     transform="translate(0,-1004.3622)">
    <path
       style="fill:#e9a439;fill-opacity:1;stroke:none"
       d="m 6.9,1013.3622 34.2,0 c 0.9,0 1.9,1 1.9,2 l 0,4 c 0,1.108 -0.8474,2 -1.9,2 l -34.2,0 c -1.0526,0 -1.9,-0.892 -1.9,-2 l 0,-6 z"
       id="path3811"
       inkscape:connector-curvature="0" />
    <path
       style="fill:#e9a439;fill-opacity:1;stroke:none"
       d="m 5,1014.3622 c 0,-2 1e-7,-3 1.818182,-3 l 6.363636,0 c 1.818182,0 1.818182,1 1.818182,3 z"
       id="rect3760"
       inkscape:connector-curvature="0"
       sodipodi:nodetypes="csscc" />
    <path
       style="opacity:0.02999998;fill:#000000;fill-opacity:1;stroke:none"
       d="m 5,1017.3622 0,5 38,0 0,-5 z"
       id="path3807"
       inkscape:connector-curvature="0" />
    <rect
       style="fill:#f5c14e;fill-opacity:1;stroke:none"
       id="rect2990"
       width="42"
       height="25"
       x="3"
       y="1019.3622"
       rx="2"
       ry="2" />
    <path
       style="opacity:0.05;fill:#000000;fill-opacity:1;stroke:none"
       d="m 15,1013.3622 0,1 1.90625,0 24.1875,0 c 0.9,0 1.90625,1 1.90625,2 l 0,-1 c 0,-1 -1.00625,-2 -1.90625,-2 l -24.1875,0 z"
       id="path3813"
       inkscape:connector-curvature="0"
       sodipodi:nodetypes="cccscsscc" />
    <path
       style="opacity:0.05;fill:#000000;fill-opacity:1;stroke:none"
       d="m 6.8125,1011.3622 c -1.8181818,0 -1.8125,1 -1.8125,3 l 0.03125,0 c 0.053418,-1.3105 0.3094499,-2 1.78125,-2 l 6.375,0 c 1.4718,0 1.727832,0.6895 1.78125,2 l 0.03125,0 c 0,-2 0.0057,-3 -1.8125,-3 l -6.375,0 z"
       id="path3818"
       inkscape:connector-curvature="0" />
    <path
       style="opacity:0.1;fill:#ffffff;fill-opacity:1;stroke:none"
       d="m 5,1019.3622 c -1.108,0 -2,0.892 -2,2 l 0,1 c 0,-1.108 0.892,-2 2,-2 l 38,0 c 1.108,0 2,0.892 2,2 l 0,-1 c 0,-1.108 -0.892,-2 -2,-2 l -38,0 z"
       id="rect2991"
       inkscape:connector-curvature="0" />
    <path
       style="opacity:1.0;fill:#c79d41;fill-opacity:1;fill-rule:nonzero;stroke:none"
       d="M 16 19 L 16 22 C 22.764434 22.7469 29.026786 28.2767 29 35 L 32 35 C 32 25.3957 23.374909 19.304 16 19 z M 16 24 L 16 27 C 19.665768 27.3014 23.95912 30.7227 24 35 L 27 35 C 26.840568 28.4778 20.553448 24.4631 16 24 z M 18.59375 29.9375 C 17.197294 29.897 16.03937 31.01015 16 32.40625 C 15.958633 33.80185 17.071626 34.958 18.46875 35 C 19.865206 35.0403 21.02312 33.92745 21.0625 32.53125 C 21.103867 31.13585 19.990874 29.9795 18.59375 29.9375 z "
       transform="translate(0,1004.3622)"
       id="path3392" />
  </g>
</svg>

<!-- Created with Inkscape (http://www.inkscape.org/) -->
<svg xmlns="http://www.w3.org/2000/svg" viewBox="0 0 48 48">
 <g transform="translate(0,-1004.3622)">
  <path d="m 6.9 1013.36 34.2 0 c 0.9 0 1.9 1 1.9 2 l 0 4 c 0 1.108 -0.847 2 -1.9 2 l -34.2 0 c -1.053 0 -1.9 -0.892 -1.9 -2 l 0 -6 z" style="fill:#e9a439;fill-opacity:1;stroke:none"/>
  <path d="m 5 1014.36 c 0 -2 0 -3 1.818 -3 l 6.364 0 c 1.818 0 1.818 1 1.818 3 z" style="fill:#e9a439;fill-opacity:1;stroke:none"/>
  <path d="m 5 1017.36 0 5 38 0 0 -5 z" style="fill:#000;opacity:0.03;fill-opacity:1;stroke:none"/>
  <rect width="42" height="25" x="3" y="1019.36" rx="2" style="fill:#f5c14e;fill-opacity:1;stroke:none"/>
  <path d="m 15 1013.36 0 1 1.906 0 24.19 0 c 0.9 0 1.906 1 1.906 2 l 0 -1 c 0 -1 -1.01 -2 -1.906 -2 l -24.19 0 z" style="fill:#000;opacity:0.05;fill-opacity:1;stroke:none"/>
  <path d="m 6.813 1011.36 c -1.818 0 -1.813 1 -1.813 3 l 0.031 0 c 0.053 -1.311 0.309 -2 1.781 -2 l 6.375 0 c 1.472 0 1.728 0.689 1.781 2 l 0.031 0 c 0 -2 0.006 -3 -1.813 -3 l -6.375 0 z" style="fill:#000;opacity:0.05;fill-opacity:1;stroke:none"/>
  <path d="m 5 1019.36 c -1.108 0 -2 0.892 -2 2 l 0 1 c 0 -1.108 0.892 -2 2 -2 l 38 0 c 1.108 0 2 0.892 2 2 l 0 -1 c 0 -1.108 -0.892 -2 -2 -2 l -38 0 z" style="fill:#fff;opacity:0.1;fill-opacity:1;stroke:none"/>
  <path d="m 16 19 l 0 3 c 6.764 0.747 13.03 6.277 13 13 l 3 0 c 0 -9.604 -8.625 -15.696 -16 -16 z m 0 5 l 0 3 c 3.666 0.301 7.959 3.723 8 8 l 3 0 c -0.159 -6.522 -6.447 -10.537 -11 -11 z m 2.594 5.938 c -1.396 -0.041 -2.554 1.073 -2.594 2.469 c -0.041 1.396 1.072 2.552 2.469 2.594 c 1.396 0.04 2.554 -1.073 2.594 -2.469 c 0.041 -1.395 -1.072 -2.552 -2.469 -2.594 z" transform="translate(0,1004.3622)" style="fill:#c79d41;opacity:1;fill-opacity:1;stroke:none;fill-rule:nonzero"/>
 </g>
</svg>
